X: 20039
T: Jimmy Duffy's
R: barndance
M: 4/4
K: Gmajor
|:BGDG ~B3B|BAGA BGBd|efge ~B2cB|AGFG ABcA|
BGDG ~B3B|BAGA BGBd|efge ~B2cB|AGFA G4:|
|:gfed ~B3B|BAGA BGBd|efge ~B2cB|AGFG ~A3d|
[1 gfed ~B2 B|BAGA BGBd|efge ~B2cB|AGFA G4:|
[2 BGDG ~B3B|BAGA BGBd|efge ~B2cB|AGFA G4|

